src/actions/24/system-switch-user.svg

<svg xmlns="http://www.w3.org/2000/svg" viewBox="0 0 24 24">
  <defs id="defs3051">
    <style type="text/css" id="current-color-scheme">
      .ColorScheme-Text {
        color:#363636;
      }
      </style>
  </defs><g transform="translate(1,1)">
    <path 
     style="fill:currentColor;fill-opacity:1;stroke:none" 
     id="path890-3"
     d="m 11.38212,2.388 c -1.989467,0 -3.220562,1.263525 -3.397744,2.799 V 6.205 L 5.8333441,4.684817 4.9843762,5.347854 7.5312808,7.336963 8.380249,8 9.229216,7.336963 11.776121,5.347854 10.927153,4.684817 8.984376,6.205 V 5.187 c 0,-1.035581 1.06462,-1.798637 2.397544,-1.799 1.332927,3.63e-4 2.621,0.763585 2.602456,1.799 V 6 h 1 V 5.186673 C 14.984376,3.641009 13.371591,2.388 11.382123,2.388 Z M 13.984376,7 c -1.10457,0 -2,0.895431 -2,2 0,1.10457 0.89543,2 2,2 1.104569,0 2,-0.89543 2,-2 0,-1.104569 -0.895431,-2 -2,-2 z M 7.984375,9 a 1.999999,2 0 0 0 -2,2 1.999999,2 0 0 0 2,2 1.999999,2 0 0 0 2,-2 1.999999,2 0 0 0 -2,-2 z M 14,12 c -1.518796,0 -2.764244,1.163057 -2.978516,2.671875 C 11.604353,15.334017 11.984375,16 11.984375,17 v 0 H 14 h 1.8125 0.601563 c 0.393221,-0.54062 0.60674,-1.198565 0.607421,-1.875 C 17.021485,13.39911 15.669244,12 14,12 Z m -0.04883,1 c 1.102577,0 1.996096,0.839466 1.996094,1.875 -4.5e-4,0.405861 -0.14066,0.800628 -0.400391,1.125 H 15.148435 13.95117 12.751951 12.726561 C 12.640916,15.461489 12.369372,14.980111 11.984375,14.601562 12.125907,13.696272 12.947971,13 13.951172,13 Z m -5.966795,1 a 2.9999989,3.1249983 0 0 0 -3,3.125 A 2.9999989,3.1249983 0 0 0 5.589844,19 h 0.59375 1.800781 1.800781 0.597657 a 2.9999989,3.1249983 0 0 0 0.601562,-1.875 2.9999989,3.1249983 0 0 0 -3,-3.125 z m 0,1 a 2.0000009,2.2500008 0 0 1 2,2.25 A 2.0000009,2.2500008 0 0 1 9.867187,18 H 6.101563 a 2.0000009,2.2500008 0 0 1 -0.117188,-0.75 2.0000009,2.2500008 0 0 1 2,-2.25 z" 
     class="ColorScheme-Text"
     />
</g></svg>

<?xml version="1.0" encoding="UTF-8"?>
<svg viewBox="0 0 24 24" xmlns="http://www.w3.org/2000/svg">
 <defs id="defs3051">
  <style id="current-color-scheme" type="text/css">.ColorScheme-Text {
        color:#363636;
      }</style>
 </defs>
 <g transform="translate(1,1)">
  <path id="path890-3" class="ColorScheme-Text" d="m11.382 2.388c-1.9895 0-3.2206 1.2635-3.3977 2.799v1.018l-2.151-1.5202-0.84897 0.66304 3.3959 2.6521 3.3959-2.6521-0.84897-0.66304-1.9428 1.5202v-1.018c0-1.0356 1.0646-1.7986 2.3975-1.799 1.3329 3.63e-4 2.621 0.76358 2.6025 1.799v0.813h1v-0.81333c0-1.5457-1.6128-2.7987-3.6023-2.7987zm2.6023 4.612c-1.1046 0-2 0.89543-2 2 0 1.1046 0.89543 2 2 2 1.1046 0 2-0.89543 2-2 0-1.1046-0.89543-2-2-2zm-6 2a2 2 0 0 0-2 2 2 2 0 0 0 2 2 2 2 0 0 0 2-2 2 2 0 0 0-2-2zm6.0156 3c-1.5188 0-2.7642 1.1631-2.9785 2.6719 0.58287 0.66214 0.96289 1.3281 0.96289 2.3281h4.4297c0.39322-0.54062 0.60674-1.1986 0.60742-1.875 1e-6 -1.7259-1.3522-3.125-3.0215-3.125zm-0.04883 1c1.1026 0 1.9961 0.83947 1.9961 1.875-4.5e-4 0.40586-0.14066 0.80063-0.40039 1.125h-2.8203c-0.085645-0.53851-0.35719-1.0199-0.74219-1.3984 0.14153-0.90529 0.9636-1.6016 1.9668-1.6016zm-5.9668 1a3 3.125 0 0 0-3 3.125 3 3.125 0 0 0 0.60547 1.875h4.793a3 3.125 0 0 0 0.60156-1.875 3 3.125 0 0 0-3-3.125zm0 1a2 2.25 0 0 1 2 2.25 2 2.25 0 0 1-0.11719 0.75h-3.7656a2 2.25 0 0 1-0.11719-0.75 2 2.25 0 0 1 2-2.25z" fill="currentColor"/>
 </g>
</svg>
